packages/ui-icons/svg/Solid/quiz-stats-cronbachs-alpha.svg

<svg viewBox="0 0 1920 1920" version="1.1" xmlns="http://www.w3.org/2000/svg">
    <path d="M951.619765,688.015059 C943.262118,685.869176 934.226824,684.852706 924.739765,684.852706 C860.928,684.852706 776.222118,734.208 723.930353,830.885647 C660.005647,949.248 656.843294,1099.008 716.928,1158.07624 C780.175059,1220.30682 905.991529,1164.288 975.224471,1125.32329 C1004.58918,1108.94682 1030.79153,1091.89271 1054.62212,1074.61271 C1046.82918,1025.70918 1043.55388,968.222118 1044.68329,901.925647 C1046.94212,782.095059 1012.94682,704.278588 951.619765,688.015059 M1169.12188,1271.90965 C1135.23953,1256.32376 1108.47247,1228.65318 1088.48188,1188.55906 C1070.29835,1200.41788 1051.09835,1212.27671 1030.54306,1223.68376 C932.171294,1278.912 854.354824,1299.24175 792.801882,1299.24175 C720.180706,1299.35435 670.599529,1271.00612 637.733647,1238.592 C530.552471,1133.10494 546.816,921.227294 624.632471,777.227294 C704.707765,629.161412 854.241882,545.697882 980.284235,578.789647 C1035.06071,593.246118 1162.11953,653.669647 1157.60188,903.834353 C1157.15012,932.747294 1157.48894,958.610824 1158.61835,981.537882 C1273.25365,852.897882 1275.06071,733.744941 1275.06071,726.968471 L1388.00188,725.613176 C1388.11482,735.664941 1388.34071,935.344941 1180.98071,1118.08376 C1195.09835,1156.59671 1211.02306,1166.87435 1216.33129,1169.35906 C1237.33835,1178.95906 1276.98071,1161.45318 1317.75247,1125.19906 L1392.74541,1209.67906 C1313.68659,1279.92847 1234.40188,1302.06494 1169.12188,1271.90965 M959.954824,-0.0338823529 C430.599529,-0.0338823529 -0.0451764706,430.723765 -0.0451764706,959.966118 C-0.0451764706,1489.32141 430.599529,1919.96612 959.954824,1919.96612 C1489.42306,1919.96612 1919.95482,1489.32141 1919.95482,959.966118 C1919.95482,430.723765 1489.42306,-0.0338823529 959.954824,-0.0338823529" stroke="none" stroke-width="1" fill-rule="evenodd"/>
</svg>

<svg viewBox="0 0 1920 1920" xmlns="http://www.w3.org/2000/svg">
    <path d="M951.62 688.015c-8.358-2.146-17.393-3.162-26.88-3.162-63.812 0-148.518 49.355-200.81 146.033-63.924 118.362-67.087 268.122-7.002 327.19 63.247 62.23 189.064 6.212 258.296-32.753 29.365-16.376 55.568-33.43 79.398-50.71-7.793-48.904-11.068-106.39-9.939-172.687 2.26-119.83-31.736-197.647-93.063-213.91m217.502 583.894c-33.882-15.586-60.65-43.257-80.64-83.35-18.184 11.858-37.384 23.717-57.939 35.124-98.372 55.228-176.188 75.558-237.741 75.558-72.621.112-122.202-28.236-155.068-60.65-107.182-105.487-90.918-317.365-13.102-461.365 80.076-148.066 229.61-231.53 355.652-198.437 54.777 14.456 181.836 74.88 177.318 325.044-.452 28.913-.113 54.777 1.016 77.704 114.636-128.64 116.443-247.793 116.443-254.57l112.94-1.355c.114 10.052.34 209.732-207.02 392.47 14.117 38.514 30.042 48.791 35.35 51.276 21.007 9.6 60.65-7.906 101.421-44.16l74.993 84.48c-79.058 70.25-158.343 92.386-223.623 62.23M959.955-.033c-529.355 0-960 430.758-960 960 0 529.355 430.645 960 960 960 529.468 0 960-430.645 960-960 0-529.242-430.532-960-960-960" fill-rule="evenodd"/>
</svg>
